X:1
T:Title
%%score ( 1 2 ) ( 3 4 )
L:1/8
Q:1/4=90
M:6/8
K:Ab
V:1 treble nm="Grand Piano, Soprano"
V:2 treble 
V:3 bass nm="Choir Pad, All for Me (Miles)"
V:4 bass 
V:1
 [Ec]>[=D_c][E=c] [CA][A,C][B,_D] | [CE][CA][CB] [DG]3 | [Gd]>[Gc][Gd] [GB][EA][EB] | [Ec]6 | %4
w: By~Charles~Austin~Miles * * * * *||||
 [=Ec]>[E_c][E=c] [EG][E_G][E=G] | [FB][FA][DF] [DA]3 | [CE][CA][Ec] [EB]2 [=DB] | [EB]6 | %8
w: ||||
 [Ec][=D_c][E=c] [_DB]2 [CA] | A6 | [Fd]2 [Fd] d-[Gd-][Fd] | [Ec]2 [Ec] [Ec]3 | %12
w: ||||
 [GB][_G=A][=GB] [Ge]2 [Gd] | [Ac]3- [Ac]3/2 z/ [A,C]/[B,D]/ | [CE][_C=D][=CE] [CA][_DB][Ec] | %15
w: |||
 [DF]>[D=E][DF] [_CA]3 | [CE][EA][EA] [DG][EA][DB] | [CA]6- | [CA]3 z3 |] %19
w: ||||
V:2
 x6 | x6 | x6 | x6 | x6 | x6 | x6 | x6 | x6 | C2 D C3 | z3 .F3 | x6 | x6 | x6 | x6 | x6 | x6 | x6 | %18
 x6 |] %19
V:3
 [A,,A,]>[A,,A,][A,,A,] [A,,A,][A,,E,][A,,E,] | [A,,A,][A,,A,][A,,A,] [E,B,]3 | %2
 [E,B,]>[E,=A,][E,B,] [E,D][E,C][E,G,] | A,6 | [C,G,]>[C,G,][C,G,] [C,C][C,C][C,C] | %5
 [D,A,][D,A,][D,A,] [D,F,]3 | [A,,A,][A,,A,][A,,A,] [E,G,]2 [B,,A,] | [E,G,]6 | %8
 [A,,A,][A,,A,][A,,A,] [E,G,]2 [A,,A,] | [A,,A,]2 [A,,F,] [A,,E,]3 | [D,A,]2 [D,A,] [D,A,]3 | %11
 A,-[C,A,][E,A,] A,3 | [E,E][E,E][E,E] [E,B,]2 [E,E] | .A,3 z3 | %14
 [A,,A,][A,,A,][A,,A,] [A,,A,][A,,A,][A,,A,] | [D,A,]>[D,A,][D,A,] [=D,A,]3 | z3 .B,3 | [A,,A,]6- | %18
 [A,,A,]3 z3 |] %19
V:4
 x6 | x6 | x6 | x6 | x6 | x6 | x6 | x6 | x6 | x6 | x6 | .A,,3 z3 | x6 | %13
 E-[E,E-][C,E-] [A,,-E]>A,,[A,,A,]/[A,,A,]/ | x6 | x6 | [E,A,][E,C][E,C] E,-[E,C][E,G,] | x6 | %18
 x6 |] %19

